X:1
T:Adagio
C:Tomaso Albinoni
Z:www.realbook.site
L:1/8
M:3/4
I:linebreak $
K:Gmin
V:1 treble nm=" " snm=" "
V:1
 d2 (c>B) (A>G) | G4 ^F2 | e2 (d>c) (B>A) | A4 G2 |$ g2 (fg) (3(efd) | e6 | f2 (ef) (3(dec) | d6 |$ %8
 e2 (de) (3(cdB) | c4 c2 | d4 e2 | d4 z !>!g |$ !>!a!>!b !>!a!>!g !>!^f!>!g | %13
 =f4 (f/4g/4_ag/4f/4) | e3 c (e>g) | d3 B (d>g) |$ c4 (c/4d/4ed/4c/4) | B4 (B/4c/4dc/4B/4) | %18
 A4 (A/4B/4cB/4A/4) | G6 | z6 :| %21

